assets/features/channel/east-asia/shinhan-bank.svg

<svg width="80" height="80" viewBox="0 0 80 80" fill="none" xmlns="http://www.w3.org/2000/svg">
<rect width="80" height="80" rx="8" fill="#0046FF"/>
<path d="M40.0079 20C36.0507 20 32.1824 21.173 28.8921 23.3706C25.6018 25.5682 23.0374 28.6918 21.523 32.3463C20.0087 36.0009 19.6124 40.0222 20.3845 43.9018C21.1565 47.7814 23.062 51.3451 25.8602 54.1421C28.6583 56.9392 32.2234 58.844 36.1045 59.6157C39.9857 60.3874 44.0086 59.9913 47.6646 58.4776C51.3205 56.9638 54.4453 54.4004 56.6438 51.1114C58.8423 47.8224 60.0157 43.9556 60.0157 40C60.0157 34.6957 57.9078 29.6086 54.1556 25.8579C50.4034 22.1071 45.3143 20 40.0079 20ZM40.4284 56.3489C38.0342 56.6799 34.1367 56.0774 31.4875 54.4091C29.497 53.1683 27.9096 51.3768 26.9177 49.2519C26.0037 47.3585 25.5732 45.0612 26.5468 45.1738C27.0004 45.2267 27.3945 46.0874 28.282 47.2128C28.8847 47.9808 29.4377 48.6263 29.8516 48.7157C30.0404 48.7554 30.1828 48.6693 30.3252 48.4177C30.5768 47.9411 30.908 47.0374 31.5107 46.3059C31.9842 45.7564 32.5869 45.4849 32.918 46.852C33.0756 47.5071 33.1983 48.1701 33.2856 48.8381C33.3916 49.7021 33.4479 50.2185 33.7492 50.3641C34.0506 50.5098 34.5241 50.3244 35.3122 50.0331C35.8785 49.8212 36.6037 49.5531 37.521 49.2916C38.3687 49.05 38.9052 49.1758 38.3621 50.4866C37.9862 51.3611 37.5058 52.1869 36.9315 52.946C36.8536 53.0433 36.8172 53.1674 36.8302 53.2913C36.8432 53.4153 36.9046 53.5291 37.0011 53.6081C37.5356 54.0266 38.1308 54.3615 38.7661 54.6011C39.3595 54.8494 39.9678 55.0606 40.5874 55.2334C41.3325 55.4651 41.1967 56.2264 40.4284 56.3489ZM50.694 52.0457C49.9522 53.2572 48.3759 54.5647 46.495 55.4386C46.2069 55.5677 45.9023 55.5247 45.8327 55.2929C45.7632 55.0612 45.9288 54.856 46.1142 54.6309C48.5813 51.4333 46.75 48.5005 42.7663 46.2231C39.8257 44.5415 37.9548 43.575 35.7824 42.2972C29.4211 38.5535 28.1926 35.2929 27.9442 33.3598C27.3183 28.4873 31.3484 24.8361 35.4943 23.9556C35.6235 23.9292 35.9546 23.8762 36.0606 24.1509C36.1666 24.4257 35.9215 24.6276 35.7791 24.7137C33.9115 25.7266 32.0902 27.8815 32.2889 30.3012C32.3981 31.6451 32.9743 33.5783 36.6136 36.1734C38.8091 37.7392 41.5013 39.0235 46.9255 42.2741C52.6577 45.71 52.0053 49.8974 50.6907 52.0457H50.694ZM51.5881 33.7405C50.28 35.3426 48.972 34.7335 47.9653 32.4925C47.3361 31.0857 46.5116 30.7481 45.9288 31.1155C45.293 31.5161 45.5446 32.4826 46.2599 33.5915C46.461 33.9145 46.5478 34.2956 46.5064 34.6737C46.4649 35.0519 46.2977 35.4051 46.0314 35.6769C45.7344 35.9521 45.3717 36.1465 44.978 36.2415C44.5844 36.3366 44.1729 36.3291 43.7829 36.2198C42.1703 35.8623 40.5841 33.7041 41.7431 28.9871C42.21 27.0871 41.296 26.2728 40.7165 25.5412C40.4284 25.1738 40.3854 24.952 40.498 24.8064C40.6106 24.6607 40.8821 24.6342 41.3556 24.7335C41.9782 24.8626 42.8988 25.1804 43.6472 25.2963C44.1953 25.3751 44.7498 25.4006 45.3029 25.3724C46.6848 25.2752 48.0677 25.5471 49.3098 26.1602C51.3695 27.1797 51.5781 28.9341 50.4324 28.8083C49.9673 28.6864 49.5215 28.5003 49.1078 28.2555C48.8263 28.1198 48.5813 28.0735 48.4024 28.2059C48.3121 28.2802 48.2507 28.3839 48.2289 28.4988C48.2071 28.6137 48.2263 28.7326 48.2832 28.8348C48.5382 29.3744 49.4025 29.6524 50.5748 29.9735C52.6179 30.5296 52.661 32.4297 51.5881 33.7405Z" fill="white"/>
<path d="M40.4283 56.3487C38.0341 56.6797 34.1365 56.0773 31.4874 54.409C29.4969 53.1682 27.9094 51.3766 26.9175 49.2517C26.0036 47.3583 25.5731 45.0611 26.5467 45.1736C27.0003 45.2266 27.3944 46.0872 28.2819 47.2127C28.8846 47.9806 29.4376 48.6261 29.8515 48.7155C30.0403 48.7552 30.1827 48.6691 30.325 48.4176C30.5767 47.9409 30.9079 47.0372 31.5105 46.3057C31.9841 45.7562 32.5868 45.4848 32.9179 46.8519C33.0755 47.5069 33.1982 48.1699 33.2855 48.838C33.3915 49.7019 33.4478 50.2183 33.7491 50.3639C34.0504 50.5096 34.524 50.3242 35.3121 50.0329C35.8784 49.8211 36.6036 49.553 37.5209 49.2915C38.3686 49.0498 38.905 49.1756 38.362 50.4864C37.9861 51.3609 37.5057 52.1867 36.9314 52.9459C36.8535 53.0432 36.8171 53.1672 36.8301 53.2912C36.8431 53.4151 36.9045 53.5289 37.001 53.6079C37.5355 54.0265 38.1307 54.3613 38.766 54.601C39.3594 54.8493 39.9676 55.0604 40.5873 55.2332C41.3323 55.4649 41.1966 56.2262 40.4283 56.3487ZM50.6939 52.0455C49.9521 53.257 48.3758 54.5645 46.4949 55.4384C46.2068 55.5675 45.9022 55.5245 45.8326 55.2928C45.7631 55.0611 45.9287 54.8558 46.1141 54.6307C48.5811 51.4331 46.7499 48.5003 42.7662 46.2229C39.8256 44.5414 37.9547 43.5748 35.7823 42.2971C29.421 38.5533 28.1925 35.2928 27.9441 33.3596C27.3182 28.4871 31.3483 24.836 35.4942 23.9555C35.6234 23.929 35.9545 23.876 36.0605 24.1508C36.1665 24.4255 35.9214 24.6274 35.779 24.7135C33.9114 25.7264 32.0901 27.8813 32.2887 30.3011C32.398 31.645 32.9742 33.5781 36.6135 36.1733C38.809 37.739 41.5012 39.0233 46.9254 42.2739C52.6576 45.7099 52.0052 49.8972 50.6905 52.0455H50.6939ZM51.588 33.7403C50.2799 35.3424 48.9719 34.7334 47.9652 32.4924C47.336 31.0856 46.5115 30.7479 45.9287 31.1154C45.2929 31.5159 45.5445 32.4825 46.2598 33.5914C46.4609 33.9143 46.5477 34.2954 46.5063 34.6735C46.4648 35.0517 46.2976 35.405 46.0313 35.6768C45.7343 35.9519 45.3716 36.1463 44.9779 36.2413C44.5842 36.3364 44.1728 36.3289 43.7828 36.2196C42.1701 35.8621 40.584 33.7039 41.743 28.9869C42.2099 27.0869 41.2959 26.2726 40.7164 25.541C40.4283 25.1736 40.3853 24.9518 40.4979 24.8062C40.6105 24.6605 40.882 24.6341 41.3555 24.7334C41.9781 24.8625 42.8987 25.1802 43.6471 25.2961C44.1952 25.3749 44.7497 25.4004 45.3028 25.3722C46.6847 25.275 48.0676 25.5469 49.3097 26.16C51.3694 27.1796 51.578 28.934 50.4323 28.8082C49.9672 28.6862 49.5214 28.5002 49.1077 28.2554C48.8262 28.1197 48.5811 28.0733 48.4023 28.2057C48.312 28.2801 48.2506 28.3837 48.2288 28.4986C48.207 28.6135 48.2262 28.7324 48.2831 28.8347C48.5381 29.3742 49.4024 29.6523 50.5746 29.9734C52.6178 30.5295 52.6609 32.4295 51.588 33.7403Z" fill="#0046FF"/>
</svg>

<svg xmlns="http://www.w3.org/2000/svg" width="80" height="80" fill="none" viewBox="0 0 80 80"><rect width="80" height="80" fill="#0046ff" rx="8"/><path fill="#fff" d="M40.008 20a20.01 20.01 0 0 0-18.485 12.346 19.99 19.99 0 0 0 4.337 21.796 20.01 20.01 0 0 0 21.805 4.336A20.01 20.01 0 0 0 60.015 40a20 20 0 0 0-5.86-14.142A20 20 0 0 0 40.009 20m.42 36.349c-2.394.33-6.291-.272-8.94-1.94a12.1 12.1 0 0 1-4.57-5.157c-.914-1.894-1.345-4.19-.371-4.078.453.053.848.913 1.735 2.039.603.768 1.156 1.413 1.57 1.503.188.04.33-.047.473-.298.252-.477.583-1.38 1.186-2.112.473-.55 1.076-.821 1.407.546q.236.983.368 1.986c.106.864.162 1.38.463 1.526s.775-.04 1.563-.33c.567-.213 1.292-.48 2.209-.742.848-.242 1.384-.116.841 1.195a11.8 11.8 0 0 1-1.43 2.459.474.474 0 0 0 .07.662 6.7 6.7 0 0 0 1.764.993q.891.373 1.821.632c.745.232.61.993-.159 1.116m10.266-4.303c-.742 1.211-2.318 2.519-4.199 3.393-.288.129-.593.086-.662-.146s.096-.437.281-.662c2.467-3.198.636-6.13-3.348-8.408-2.94-1.681-4.811-2.648-6.984-3.926-6.36-3.743-7.59-7.004-7.838-8.937-.626-4.873 3.404-8.524 7.55-9.404.13-.027.46-.08.567.195s-.14.477-.282.563c-1.868 1.013-3.689 3.168-3.49 5.587.11 1.344.685 3.277 4.325 5.872 2.195 1.566 4.887 2.85 10.312 6.101 5.732 3.436 5.08 7.623 3.765 9.772zm.894-18.306c-1.308 1.603-2.616.993-3.623-1.248-.629-1.406-1.453-1.744-2.036-1.376-.636.4-.384 1.367.33 2.476a1.7 1.7 0 0 1-.228 2.085 2.37 2.37 0 0 1-2.248.543c-1.613-.358-3.199-2.516-2.04-7.233.467-1.9-.447-2.714-1.026-3.446-.289-.367-.332-.589-.219-.735.113-.145.384-.172.858-.073.622.13 1.543.447 2.291.563a8.6 8.6 0 0 0 1.656.076 7.8 7.8 0 0 1 4.007.788c2.06 1.02 2.268 2.774 1.122 2.648a5.2 5.2 0 0 1-1.324-.552c-.282-.136-.527-.183-.706-.05a.5.5 0 0 0-.119.629c.255.54 1.12.817 2.292 1.139 2.043.556 2.086 2.456 1.013 3.766"/><path fill="#0046ff" d="M40.428 56.349c-2.394.33-6.291-.272-8.94-1.94a12.1 12.1 0 0 1-4.57-5.157c-.914-1.894-1.345-4.19-.371-4.078.453.053.847.913 1.735 2.039.603.768 1.156 1.413 1.57 1.502.188.04.33-.046.473-.297.252-.477.583-1.38 1.186-2.112.473-.55 1.076-.821 1.407.546q.236.983.367 1.986c.107.864.163 1.38.464 1.526s.775-.04 1.563-.331a28 28 0 0 1 2.209-.742c.848-.241 1.384-.115.841 1.195a11.8 11.8 0 0 1-1.43 2.46.473.473 0 0 0 .069.662c.535.419 1.13.753 1.765.993q.891.373 1.821.632c.745.232.61.993-.159 1.116m10.266-4.303c-.742 1.211-2.318 2.519-4.2 3.392-.287.13-.592.087-.661-.145s.096-.437.281-.662c2.467-3.198.636-6.13-3.348-8.408-2.94-1.682-4.811-2.648-6.984-3.926-6.361-3.744-7.59-7.004-7.838-8.937-.626-4.873 3.404-8.524 7.55-9.404.13-.027.46-.08.566.195.106.274-.139.476-.281.563-1.868 1.012-3.689 3.167-3.49 5.587.109 1.344.685 3.277 4.325 5.872 2.195 1.566 4.887 2.85 10.311 6.1 5.733 3.437 5.08 7.624 3.766 9.772zm.894-18.306c-1.308 1.602-2.616.993-3.623-1.248-.629-1.406-1.454-1.744-2.036-1.377-.636.4-.385 1.368.33 2.476a1.7 1.7 0 0 1-.228 2.086 2.37 2.37 0 0 1-2.248.543c-1.613-.358-3.199-2.516-2.04-7.233.467-1.9-.447-2.714-1.027-3.446-.288-.367-.33-.59-.218-.735s.384-.172.858-.073c.622.13 1.543.447 2.291.563a8.6 8.6 0 0 0 1.656.076 7.8 7.8 0 0 1 4.007.788c2.06 1.02 2.268 2.774 1.122 2.648a5.2 5.2 0 0 1-1.324-.553c-.282-.135-.527-.182-.706-.05a.5.5 0 0 0-.119.63c.255.54 1.12.817 2.292 1.138 2.043.556 2.086 2.456 1.013 3.767"/></svg>
